svg/u1f3b5.svg

<svg viewBox="0 0 128 128" xmlns="http://www.w3.org/2000/svg">
  <path d="M104.83,8.35l-67.47,9.81c-1.58,0.23-2.76,1.59-2.76,3.19v68.19c-5.33-0.63-11.21,2.79-14.63,6.38 c-6.43,6.75-7.55,16.14-2.48,20.97c5.06,4.83,14.39,3.26,20.82-3.49c2.75-2.89,5.31-7.72,5.71-12.34h0.07V41.65l54.28-7.89v48.02 c-5.37-0.73-11.34,2.72-14.8,6.36c-6.43,6.75-7.54,16.14-2.48,20.97c5.07,4.83,14.39,3.26,20.82-3.49c2.84-2.98,5.49-8.04,5.76-12.8 h0.02v-82C107.69,9.29,106.34,8.13,104.83,8.35z" fill="#546E7A"/>
</svg>

<svg viewBox="0 0 128 128" xmlns="http://www.w3.org/2000/svg">
  <defs/>
  <path d="M104.83,8.35 L37.36,18.16 C35.78,18.39 34.6,19.75 34.6,21.35 L34.6,89.54 C29.27,88.91 23.39,92.33 19.97,95.92 C13.54,102.67 12.42,112.06 17.49,116.89 C22.55,121.72 31.88,120.15 38.31,113.4 C41.06,110.51 43.62,105.68 44.02,101.06 L44.09,101.06 L44.09,41.65 L98.37,33.76 L98.37,81.78 C93,81.05 87.03,84.5 83.57,88.14 C77.14,94.89 76.03,104.28 81.09,109.11 C86.16,113.94 95.48,112.37 101.91,105.62 C104.75,102.64 107.4,97.58 107.67,92.82 L107.69,92.82 L107.69,10.82 C107.69,9.29 106.34,8.13 104.83,8.35 Z" fill="#546E7A"/>
</svg>
